;FLAVOR:Marlin
;TIME:4029
;Filament used: 3.91763m
;Layer height: 0.2
;MINX:80.202
;MINY:80.201
;MINZ:0.2
;MAXX:129.798
;MAXY:129.799
;MAXZ:15
;Generated with Cura_SteamEngine 4.7.1
M140 S60
M105
M190 S60
M104 S210
M105
M109 S210
M82 ;absolute extrusion mode
G21 ;metric values
G90 ;absolute positioning
M82 ;set extruder to absolute mode
M107 ;start with the fan off
G28 X0 Y0 ;move X/Y to min endstops
G28 Z0 ;move Z to min endstops
G1 Z15.0 F100 ;move the platform down 15mm
G92 E0 ;zero the extruded length
G1 F200 E3 ;extrude 3mm of feed stock
G92 E0 ;zero the extruded length again
G1 F100
G0 Y20 F100
M117 Printing...
G5
G92 E0
G92 E0
G1 F2400 E-6
;LAYER_COUNT:75
;LAYER:0
M106 S255
M204 S3000
M205 X10 Y10
G1 F600 Z0.275
;MESH:storage[mm].stl
G0 F3000 X87.703 Y121.053 Z0.275
M204 S1800
M205 X8 Y8
;TYPE:WALL-INNER
G1 F600 Z0.2
G1 F2400 E0
G1 F1800 X87.13 Y120.412 E0.04003
G1 X86.632 Y119.815 E0.07624
G1 X86.114 Y119.149 E0.11552
G1 X85.685 Y118.557 E0.14957
G1 X85.214 Y117.861 E0.1887
G1 X84.778 Y117.162 E0.22706
G1 X84.396 Y116.505 E0.26245
G1 X83.995 Y115.754 E0.30209
G1 X83.654 Y115.063 E0.33797
G1 X83.332 Y114.343 E0.3747
G1 X83.021 Y113.589 E0.41268
G1 X82.732 Y112.809 E0.45141
G1 X82.49 Y112.084 E0.487
G1 X82.255 Y111.288 E0.52564
G1 X82.06 Y110.536 E0.56182
G1 X81.884 Y109.752 E0.59923
G1 X81.742 Y108.993 E0.63519
G1 X81.619 Y108.191 E0.67297
G1 X81.521 Y107.376 E0.71119
G1 X81.453 Y106.556 E0.74951
G1 X81.415 Y105.783 E0.78555
G1 X81.402 Y105.023 E0.82094
G1 X81.416 Y104.183 E0.86006
G1 X81.454 Y103.421 E0.89558
G1 X81.521 Y102.625 E0.93278
G1 X81.626 Y101.757 E0.97349
G1 X81.744 Y100.995 E1.0094
G1 X81.899 Y100.179 E1.04807
G1 X82.06 Y99.465 E1.08216
G1 X82.264 Y98.682 E1.11983
G1 X82.501 Y97.886 E1.15851
G1 X82.745 Y97.152 E1.19452
G1 X83.021 Y96.41 E1.23139
G1 X83.331 Y95.658 E1.26926
G1 X83.672 Y94.901 E1.30792
G1 X84.01 Y94.216 E1.34349
G1 X84.386 Y93.513 E1.38061
G1 X84.808 Y92.788 E1.41967
G1 X85.214 Y92.139 E1.45532
G1 X85.685 Y91.444 E1.49441
G1 X86.14 Y90.817 E1.53049
G1 X86.644 Y90.17 E1.56868
G1 X87.137 Y89.578 E1.60455
G1 X87.695 Y88.956 E1.64346
G1 X88.276 Y88.351 E1.68252
G1 X88.851 Y87.793 E1.71982
G1 X89.428 Y87.268 E1.75615
G1 X90.017 Y86.767 E1.79216
G1 X90.628 Y86.282 E1.82848
G1 X91.289 Y85.794 E1.86674
G1 X91.942 Y85.344 E1.90367
G1 X92.641 Y84.897 E1.9423
G1 X93.33 Y84.489 E1.97959
G1 X94.022 Y84.109 E2.01635
G1 X94.739 Y83.748 E2.05373
G1 X95.453 Y83.419 E2.09033
G1 X96.216 Y83.097 E2.1289
G1 X96.937 Y82.822 E2.16483
G1 X97.754 Y82.542 E2.20504
G1 X98.46 Y82.325 E2.23943
G1 X99.294 Y82.101 E2.27965
G1 X100.056 Y81.924 E2.31607
G1 X100.802 Y81.777 E2.35148
G1 X101.622 Y81.644 E2.39016
G1 X102.386 Y81.546 E2.42603
G1 X103.213 Y81.469 E2.4647
G1 X104.021 Y81.422 E2.50239
G1 X104.846 Y81.401 E2.54082
G1 X105.632 Y81.409 E2.57742
G1 X106.413 Y81.441 E2.61381
G1 X107.187 Y81.502 E2.64997
G1 X108.014 Y81.593 E2.68871
G1 X108.799 Y81.708 E2.72565
G1 X109.579 Y81.847 E2.76254
G1 X110.383 Y82.022 E2.80086
G1 X111.167 Y82.221 E2.83852
G1 X111.93 Y82.441 E2.8755
G1 X112.688 Y82.687 E2.9126
G1 X113.408 Y82.948 E2.94827
G1 X114.174 Y83.255 E2.98669
G1 X114.916 Y83.584 E3.02449
G1 X115.605 Y83.917 E3.06012
G1 X116.356 Y84.312 E3.09963
G1 X117.045 Y84.704 E3.13654
G1 X117.728 Y85.124 E3.17388
G1 X118.364 Y85.547 E3.20945
G1 X119.025 Y86.018 E3.24724
G1 X119.668 Y86.51 E3.28494
G1 X120.302 Y87.031 E3.32315
G1 X120.919 Y87.576 E3.36148
G1 X121.508 Y88.134 E3.39926
G1 X122.03 Y88.661 E3.4338
G1 X122.594 Y89.269 E3.47242
G1 X123.117 Y89.874 E3.50966
G1 X123.597 Y90.468 E3.54522
G1 X124.115 Y91.157 E3.58536
G1 X124.559 Y91.791 E3.6214
G1 X124.996 Y92.463 E3.65872
G1 X125.429 Y93.183 E3.69785
G1 X125.802 Y93.85 E3.73343
G1 X126.17 Y94.566 E3.77092
G1 X126.514 Y95.293 E3.80837
G1 X126.816 Y95.994 E3.84391
G1 X127.112 Y96.748 E3.88163
G1 X127.389 Y97.531 E3.9203
G1 X127.629 Y98.294 E3.95754
G1 X127.837 Y99.039 E3.99356
G1 X128.03 Y99.841 E4.03197
G1 X128.199 Y100.663 E4.07105
G1 X128.329 Y101.425 E4.10704
G1 X128.432 Y102.18 E4.14253
G1 X128.516 Y102.983 E4.18012
G1 X128.569 Y103.775 E4.21708
G1 X128.598 Y104.613 E4.25613
G1 X128.597 Y105.409 E4.29319
G1 X128.569 Y106.221 E4.33102
G1 X128.512 Y107.049 E4.36967
G1 X128.437 Y107.784 E4.40407
G1 X128.324 Y108.603 E4.44257
G1 X128.189 Y109.398 E4.48012
G1 X128.035 Y110.142 E4.5155
G1 X127.828 Y110.988 E4.55605
G1 X127.619 Y111.736 E4.59222
G1 X127.381 Y112.491 E4.62908
G1 X127.099 Y113.288 E4.66844
G1 X126.821 Y113.994 E4.70377
G1 X126.502 Y114.732 E4.74121
G1 X126.175 Y115.425 E4.77689
G1 X125.809 Y116.137 E4.81417
G1 X125.399 Y116.87 E4.85328
G1 X125.005 Y117.523 E4.88879
G1 X124.555 Y118.214 E4.92719
G1 X124.088 Y118.88 E4.96506
G1 X123.607 Y119.521 E5.00238
G1 X123.103 Y120.143 E5.03966
G1 X122.547 Y120.784 E5.07917
G1 X122.056 Y121.313 E5.11278
G1 X121.465 Y121.909 E5.15186
G1 X120.903 Y122.44 E5.18786
G1 X120.285 Y122.984 E5.2262
G1 X119.658 Y123.498 E5.26395
G1 X119.038 Y123.972 E5.30029
G1 X118.361 Y124.454 E5.33899
G1 X117.698 Y124.893 E5.37602
G1 X117.011 Y125.316 E5.41358
G1 X116.326 Y125.704 E5.45024
G1 X115.621 Y126.075 E5.48734
G1 X114.862 Y126.44 E5.52655
G1 X114.176 Y126.744 E5.56149
G1 X113.384 Y127.061 E5.60122
G1 X112.688 Y127.313 E5.63568
G1 X111.899 Y127.569 E5.67431
G1 X111.154 Y127.783 E5.7104
G1 X110.343 Y127.988 E5.74935
G1 X109.602 Y128.148 E5.78465
G1 X108.792 Y128.293 E5.82297
G1 X107.981 Y128.411 E5.86113
G1 X107.156 Y128.501 E5.89977
G1 X106.405 Y128.558 E5.93484
G1 X105.617 Y128.592 E5.97157
G1 X104.815 Y128.599 E6.00892
G1 X103.986 Y128.577 E6.04753
G1 X103.19 Y128.529 E6.08466
G1 X102.353 Y128.451 E6.12381
G1 X101.59 Y128.352 E6.15963
G1 X100.804 Y128.224 E6.19671
G1 X100.032 Y128.071 E6.23336
G1 X99.264 Y127.892 E6.27008
G1 X98.462 Y127.675 E6.30877
G1 X97.718 Y127.447 E6.345
G1 X96.919 Y127.172 E6.38435
G1 X96.21 Y126.901 E6.41969
G1 X95.421 Y126.567 E6.45959
G1 X94.718 Y126.241 E6.49567
G1 X93.971 Y125.863 E6.53465
G1 X93.31 Y125.499 E6.56979
G1 X92.59 Y125.073 E6.60875
G1 X91.931 Y124.649 E6.64523
G1 X91.274 Y124.196 E6.68239
G1 X90.633 Y123.721 E6.71954
G1 X90.002 Y123.22 E6.75706
G1 X89.426 Y122.73 E6.79227
G1 X88.82 Y122.178 E6.83044
G1 X88.227 Y121.6 E6.869
G1 X87.703 Y121.053 E6.90427
M204 S3000
M205 X10 Y10
G0 F3000 X87.285 Y121.426
M204 S1800
M205 X8 Y8
G1 F1800 X86.712 Y120.785 E6.94431
G1 X86.202 Y120.174 E6.98137
G1 X85.672 Y119.493 E7.02155
G1 X85.221 Y118.871 E7.05733
G1 X84.75 Y118.175 E7.09646
G1 X84.303 Y117.459 E7.13576
G1 X83.902 Y116.769 E7.17292
G1 X83.501 Y116.018 E7.21257
G1 X83.152 Y115.311 E7.24928
G1 X82.814 Y114.557 E7.28775
G1 X82.503 Y113.803 E7.32573
G1 X82.207 Y113.004 E7.36541
G1 X81.953 Y112.243 E7.40277
G1 X81.718 Y111.447 E7.44141
G1 X81.518 Y110.677 E7.47846
G1 X81.338 Y109.875 E7.51673
G1 X81.335 Y109.856 E7.51763
G1 X81.188 Y109.078 E7.55449
G1 X81.065 Y108.276 E7.59228
G1 X80.965 Y107.443 E7.63134
G1 X80.964 Y107.423 E7.63227
G1 X80.895 Y106.602 E7.67064
G1 X80.895 Y106.584 E7.67148
G1 X80.855 Y105.792 E7.7084
G1 X80.842 Y105.014 E7.74463
G1 X80.856 Y104.174 E7.78375
G1 X80.896 Y103.374 E7.82105
G1 X80.965 Y102.558 E7.85918
G1 X81.07 Y101.69 E7.8999
G1 X81.194 Y100.89 E7.93759
G1 X81.349 Y100.074 E7.97627
G1 X81.518 Y99.324 E8.01207
G1 X81.727 Y98.522 E8.05066
G1 X81.964 Y97.726 E8.08933
G1 X82.22 Y96.957 E8.12707
G1 X82.503 Y96.197 E8.16483
G1 X82.82 Y95.428 E8.20356
G1 X83.161 Y94.671 E8.24223
G1 X83.516 Y93.952 E8.27956
G1 X83.902 Y93.231 E8.31764
G1 X84.333 Y92.491 E8.35752
G1 X84.75 Y91.825 E8.39411
G1 X85.221 Y91.13 E8.4332
G1 X85.698 Y90.473 E8.47101
G1 X86.202 Y89.826 E8.5092
G1 X86.72 Y89.204 E8.54689
G1 X87.291 Y88.568 E8.58669
G1 X87.872 Y87.963 E8.62575
G1 X88.461 Y87.391 E8.66398
G1 X89.051 Y86.854 E8.70113
G1 X89.669 Y86.328 E8.73891
G1 X90.295 Y85.831 E8.77613
G1 X90.956 Y85.343 E8.81439
G1 X91.64 Y84.872 E8.85306
G1 X92.339 Y84.425 E8.8917
G1 X93.045 Y84.007 E8.9299
G1 X93.763 Y83.613 E8.96804
G1 X94.505 Y83.239 E9.00673
G1 X95.225 Y82.907 E9.04365
G1 X95.998 Y82.581 E9.08271
G1 X96.755 Y82.292 E9.12044
G1 X97.572 Y82.012 E9.16066
G1 X98.315 Y81.784 E9.19685
G1 X99.149 Y81.56 E9.23706
G1 X99.936 Y81.377 E9.27468
G1 X100.712 Y81.224 E9.31151
G1 X101.532 Y81.091 E9.35019
G1 X102.334 Y80.988 E9.38784
G1 X103.161 Y80.911 E9.42652
G1 X103.988 Y80.864 E9.46509
G1 X104.006 Y80.862 E9.46593
G1 X104.837 Y80.841 E9.50464
G1 X105.656 Y80.849 E9.54278
G1 X106.437 Y80.882 E9.57918
G1 X107.248 Y80.945 E9.61705
G1 X108.075 Y81.036 E9.65579
G1 X108.88 Y81.154 E9.69368
G1 X109.692 Y81.299 E9.73209
G1 X110.52 Y81.479 E9.77154
G1 X111.31 Y81.679 E9.80949
G1 X112.103 Y81.908 E9.84792
G1 X112.861 Y82.154 E9.88503
G1 X113.616 Y82.428 E9.92243
G1 X114.392 Y82.739 E9.96136
G1 X115.143 Y83.072 E9.99961
G1 X115.866 Y83.421 E10.037
G1 X116.617 Y83.816 E10.07651
G1 X117.322 Y84.217 E10.11427
G1 X118.021 Y84.647 E10.15249
G1 X118.689 Y85.091 E10.18984
G1 X119.365 Y85.573 E10.2285
G1 X120.024 Y86.077 E10.26713
G1 X120.658 Y86.598 E10.30534
G1 X121.29 Y87.156 E10.3446
G1 X121.893 Y87.727 E10.38327
G1 X122.441 Y88.28 E10.41952
G1 X123.005 Y88.888 E10.45813
G1 X123.541 Y89.508 E10.4963
G1 X124.045 Y90.131 E10.53361
G1 X124.563 Y90.82 E10.57375
G1 X125.029 Y91.486 E10.6116
G1 X125.476 Y92.174 E10.6498
G1 X125.909 Y92.894 E10.68892
G1 X126.3 Y93.594 E10.72626
G1 X126.676 Y94.326 E10.76458
G1 X127.02 Y95.053 E10.80203
G1 X127.329 Y95.772 E10.83847
G1 X127.337 Y95.789 E10.83934
G1 X127.64 Y96.561 E10.87796
G1 X127.917 Y97.344 E10.91663
G1 X127.922 Y97.363 E10.91755
G1 X128.163 Y98.126 E10.95481
G1 X128.167 Y98.143 E10.95562
G1 X128.375 Y98.888 E10.99164
G1 X128.381 Y98.908 E10.99261
G1 X128.579 Y99.728 E11.03189
G1 X128.748 Y100.55 E11.07097
G1 X128.88 Y101.331 E11.10785
G1 X128.884 Y101.35 E11.10875
G1 X128.989 Y102.122 E11.14503
G1 X129.075 Y102.946 E11.18361
G1 X129.129 Y103.756 E11.22141
G1 X129.158 Y104.594 E11.26045
G1 X129.157 Y105.429 E11.29933
G1 X129.128 Y106.259 E11.33801
G1 X129.071 Y107.087 E11.37665
G1 X128.992 Y107.86 E11.41283
G1 X128.879 Y108.681 E11.45142
G1 X128.741 Y109.492 E11.48973
G1 X128.579 Y110.275 E11.52696
G1 X128.372 Y111.122 E11.56756
G1 X128.153 Y111.904 E11.60538
G1 X127.909 Y112.678 E11.64317
G1 X127.626 Y113.477 E11.68264
G1 X127.335 Y114.216 E11.71962
G1 X127.016 Y114.955 E11.7571
G1 X126.673 Y115.681 E11.79449
G1 X126.298 Y116.41 E11.83266
G1 X125.888 Y117.143 E11.87177
G1 X125.474 Y117.829 E11.90908
G1 X125.014 Y118.535 E11.94831
G1 X124.536 Y119.217 E11.98709
G1 X124.054 Y119.858 E12.02444
G1 X123.526 Y120.51 E12.06351
G1 X122.97 Y121.151 E12.10302
G1 X122.454 Y121.707 E12.13834
G1 X121.863 Y122.303 E12.17742
G1 X121.273 Y122.86 E12.2152
G1 X120.64 Y123.417 E12.25446
G1 X119.998 Y123.943 E12.29311
G1 X119.372 Y124.422 E12.32981
G1 X118.678 Y124.916 E12.36948
G1 X117.992 Y125.37 E12.40779
G1 X117.305 Y125.793 E12.44535
G1 X116.587 Y126.2 E12.48378
G1 X115.874 Y126.575 E12.5213
G1 X115.105 Y126.945 E12.56103
G1 X114.394 Y127.26 E12.59724
G1 X113.592 Y127.581 E12.63747
G1 X112.861 Y127.846 E12.67367
G1 X112.072 Y128.102 E12.7123
G1 X111.296 Y128.325 E12.7499
G1 X110.48 Y128.531 E12.78908
G1 X109.72 Y128.694 E12.82528
G1 X109.701 Y128.699 E12.82619
G1 X108.88 Y128.846 E12.86503
G1 X108.042 Y128.968 E12.90446
G1 X107.217 Y129.058 E12.94311
G1 X106.44 Y129.117 E12.97939
G1 X105.622 Y129.152 E13.01751
G1 X104.805 Y129.159 E13.05556
G1 X103.967 Y129.137 E13.09459
G1 X103.138 Y129.087 E13.13326
G1 X102.301 Y129.009 E13.17241
G1 X101.499 Y128.905 E13.21006
G1 X100.713 Y128.776 E13.24715
G1 X99.912 Y128.618 E13.28517
G1 X99.118 Y128.433 E13.32313
G1 X98.316 Y128.216 E13.36182
G1 X97.536 Y127.977 E13.39981
G1 X96.737 Y127.702 E13.43915
G1 X95.995 Y127.418 E13.47615
G1 X95.203 Y127.083 E13.51619
G1 X94.465 Y126.741 E13.55407
G1 X93.718 Y126.363 E13.59305
G1 X93.025 Y125.981 E13.6299
G1 X92.294 Y125.548 E13.66946
G1 X91.628 Y125.12 E13.70632
G1 X90.956 Y124.657 E13.74432
G1 X90.285 Y124.16 E13.7832
G1 X89.654 Y123.659 E13.82072
G1 X89.05 Y123.145 E13.85765
G1 X88.433 Y122.583 E13.89651
G1 X87.836 Y122.001 E13.93533
G1 X87.285 Y121.426 E13.97242
M204 S3000
M205 X10 Y10
G0 F3000 X86.848 Y121.777
M204 S1800
M205 X8 Y8
;TYPE:WALL-OUTER
G1 F1800 X86.282 Y121.144 E14.01196
G1 X85.772 Y120.533 E14.04902
G1 X85.23 Y119.837 E14.09009
G1 X84.757 Y119.185 E14.1276
G1 X84.286 Y118.489 E14.16673
G1 X83.828 Y117.756 E14.20698
G1 X83.418 Y117.051 E14.24495
G1 X83.007 Y116.282 E14.28555
G1 X82.65 Y115.559 E14.3231
G1 X82.296 Y114.771 E14.36333
G1 X81.985 Y114.017 E14.40131
G1 X81.682 Y113.199 E14.44192
G1 X81.416 Y112.402 E14.48105
G1 X81.181 Y111.606 E14.51969
G1 X80.976 Y110.818 E14.55761
G1 X80.792 Y109.998 E14.59674
G1 X80.638 Y109.182 E14.63541
G1 X80.509 Y108.343 E14.67493
G1 X80.409 Y107.51 E14.714
G1 X80.337 Y106.649 E14.75423
G1 X80.295 Y105.801 E14.79377
G1 X80.282 Y105.005 E14.83084
G1 X80.296 Y104.165 E14.86996
G1 X80.338 Y103.327 E14.90903
G1 X80.409 Y102.491 E14.94809
G1 X80.514 Y101.623 E14.98881
G1 X80.644 Y100.785 E15.02829
G1 X80.799 Y99.969 E15.06697
G1 X80.976 Y99.183 E15.10449
G1 X81.19 Y98.362 E15.14399
G1 X81.427 Y97.566 E15.18267
G1 X81.695 Y96.761 E15.22217
G1 X81.985 Y95.983 E15.26083
G1 X82.309 Y95.198 E15.30038
G1 X82.65 Y94.441 E15.33904
G1 X83.022 Y93.688 E15.37815
G1 X83.418 Y92.949 E15.41719
G1 X83.858 Y92.194 E15.45788
G1 X84.286 Y91.511 E15.49541
G1 X84.757 Y90.816 E15.5345
G1 X85.256 Y90.129 E15.57404
G1 X85.772 Y89.467 E15.61312
G1 X86.303 Y88.83 E15.65174
G1 X86.887 Y88.18 E15.69243
G1 X87.468 Y87.575 E15.73149
G1 X88.071 Y86.989 E15.77064
G1 X88.674 Y86.44 E15.80861
G1 X89.306 Y85.902 E15.84726
G1 X89.963 Y85.38 E15.88633
G1 X90.638 Y84.882 E15.92539
G1 X91.338 Y84.4 E15.96497
G1 X92.037 Y83.953 E16.0036
G1 X92.76 Y83.525 E16.04272
G1 X93.504 Y83.117 E16.08223
G1 X94.253 Y82.739 E16.1213
G1 X95.007 Y82.391 E16.15997
G1 X95.78 Y82.065 E16.19903
G1 X96.573 Y81.762 E16.23856
G1 X97.39 Y81.482 E16.27878
G1 X98.17 Y81.243 E16.31676
G1 X99.004 Y81.019 E16.35697
G1 X99.822 Y80.829 E16.39608
G1 X100.622 Y80.671 E16.43405
G1 X101.442 Y80.538 E16.47273
G1 X102.282 Y80.43 E16.51217
G1 X103.109 Y80.353 E16.55084
G1 X103.991 Y80.302 E16.59198
G1 X104.828 Y80.281 E16.63097
G1 X105.661 Y80.289 E16.66976
G1 X106.475 Y80.324 E16.70769
G1 X107.309 Y80.388 E16.74664
G1 X108.136 Y80.479 E16.78538
G1 X108.968 Y80.601 E16.82454
G1 X109.8 Y80.75 E16.8639
G1 X110.657 Y80.936 E16.90473
G1 X111.461 Y81.139 E16.94334
G1 X112.276 Y81.375 E16.98285
G1 X113.034 Y81.621 E17.01996
G1 X113.824 Y81.908 E17.0591
G1 X114.612 Y82.224 E17.09863
G1 X115.37 Y82.56 E17.13724
G1 X116.127 Y82.925 E17.17637
G1 X116.878 Y83.32 E17.21588
G1 X117.599 Y83.73 E17.25451
G1 X118.314 Y84.17 E17.2936
G1 X119.014 Y84.635 E17.33273
G1 X119.705 Y85.128 E17.37225
G1 X120.364 Y85.632 E17.41089
G1 X121.013 Y86.165 E17.44999
G1 X121.675 Y86.749 E17.4911
G1 X122.278 Y87.32 E17.52977
G1 X122.852 Y87.899 E17.56773
G1 X123.416 Y88.507 E17.60635
G1 X123.965 Y89.142 E17.64543
G1 X124.493 Y89.795 E17.68454
G1 X125.018 Y90.494 E17.72524
G1 X125.499 Y91.181 E17.76429
G1 X125.956 Y91.885 E17.80338
G1 X126.389 Y92.605 E17.8425
G1 X126.798 Y93.338 E17.88158
G1 X127.182 Y94.086 E17.92073
G1 X127.526 Y94.813 E17.95819
G1 X127.858 Y95.584 E17.99727
G1 X128.168 Y96.374 E18.03679
G1 X128.445 Y97.157 E18.07546
G1 X128.697 Y97.958 E18.11456
G1 X128.925 Y98.776 E18.15411
G1 X129.128 Y99.615 E18.1943
G1 X129.297 Y100.437 E18.23338
G1 X129.439 Y101.275 E18.27295
G1 X129.546 Y102.064 E18.31003
G1 X129.634 Y102.909 E18.34959
G1 X129.689 Y103.737 E18.38823
G1 X129.718 Y104.575 E18.42727
G1 X129.717 Y105.449 E18.46797
G1 X129.687 Y106.297 E18.50748
G1 X129.63 Y107.125 E18.54613
G1 X129.547 Y107.936 E18.58409
G1 X129.434 Y108.759 E18.62277
G1 X129.293 Y109.586 E18.66183
G1 X129.123 Y110.408 E18.70092
G1 X128.916 Y111.256 E18.74157
G1 X128.687 Y112.073 E18.78108
G1 X128.437 Y112.865 E18.81975
G1 X128.153 Y113.666 E18.85932
G1 X127.849 Y114.438 E18.89795
G1 X127.53 Y115.178 E18.93548
G1 X127.171 Y115.937 E18.97457
G1 X126.787 Y116.683 E19.01364
G1 X126.377 Y117.416 E19.05275
G1 X125.943 Y118.135 E19.09186
